icons/circle/48/alexandra.svg

<svg xmlns="http://www.w3.org/2000/svg" viewBox="0 0 48 48">
 <defs>
  <linearGradient id="linearGradient3764" x1="1" x2="47" gradientUnits="userSpaceOnUse" gradientTransform="matrix(0,-1,1,0,-1.5e-6,47.999998)">
   <stop style="stop-color:#3d3d3d;stop-opacity:1"/>
   <stop offset="1" style="stop-color:#474747;stop-opacity:1"/>
  </linearGradient>
 </defs>
 <g>
  <path d="m 36.31 5 c 5.859 4.062 9.688 10.831 9.688 18.5 c 0 12.426 -10.07 22.5 -22.5 22.5 c -7.669 0 -14.438 -3.828 -18.5 -9.688 c 1.037 1.822 2.306 3.499 3.781 4.969 c 4.085 3.712 9.514 5.969 15.469 5.969 c 12.703 0 23 -10.298 23 -23 c 0 -5.954 -2.256 -11.384 -5.969 -15.469 c -1.469 -1.475 -3.147 -2.744 -4.969 -3.781 z m 4.969 3.781 c 3.854 4.113 6.219 9.637 6.219 15.719 c 0 12.703 -10.297 23 -23 23 c -6.081 0 -11.606 -2.364 -15.719 -6.219 c 4.16 4.144 9.883 6.719 16.219 6.719 c 12.703 0 23 -10.298 23 -23 c 0 -6.335 -2.575 -12.06 -6.719 -16.219 z" style="opacity:0.05"/>
  <path d="m 41.28 8.781 c 3.712 4.085 5.969 9.514 5.969 15.469 c 0 12.703 -10.297 23 -23 23 c -5.954 0 -11.384 -2.256 -15.469 -5.969 c 4.113 3.854 9.637 6.219 15.719 6.219 c 12.703 0 23 -10.298 23 -23 c 0 -6.081 -2.364 -11.606 -6.219 -15.719 z" style="opacity:0.1"/>
  <path d="m 31.25 2.375 c 8.615 3.154 14.75 11.417 14.75 21.13 c 0 12.426 -10.07 22.5 -22.5 22.5 c -9.708 0 -17.971 -6.135 -21.12 -14.75 a 23 23 0 0 0 44.875 -7 a 23 23 0 0 0 -16 -21.875 z" style="opacity:0.2"/>
 </g>
 <g>
  <path d="m 24 1 c 12.703 0 23 10.297 23 23 c 0 12.703 -10.297 23 -23 23 -12.703 0 -23 -10.297 -23 -23 0 -12.703 10.297 -23 23 -23 z" style="fill:url(#linearGradient3764);fill-opacity:1"/>
 </g>
 <g>
  <g>
   <g transform="translate(1,1)">
    <g style="opacity:0.1">
     <!-- color: #474747 -->
    </g>
   </g>
  </g>
 </g>
 <g>
  <path d="m 40.03 7.531 c 3.712 4.084 5.969 9.514 5.969 15.469 0 12.703 -10.297 23 -23 23 c -5.954 0 -11.384 -2.256 -15.469 -5.969 4.178 4.291 10.01 6.969 16.469 6.969 c 12.703 0 23 -10.298 23 -23 0 -6.462 -2.677 -12.291 -6.969 -16.469 z" style="opacity:0.1"/>
 </g>
 <path d="m 27.75,12 c 2.623,0 4.75,2.127 4.75,4.75 -0.003,1.803 -1.026,3.45 -2.643,4.25 L 31,21 c 0.554,0 1,0.446 1,1 l 0,1.5 7,-2.5 0,13 -7,-2.5 0,1.5 c 0,0.554 -0.446,1 -1,1 l -16,0 c -0.554,0 -1,-0.446 -1,-1 l 0,-11 c 0,-0.554 0.446,-1 1,-1 l 1.135,0 C 14.522,20.198 13.501,18.552 13.5,16.75 13.5,14.127 15.627,12 18.25,12 20.873,12 23,14.127 23,16.75 22.997,18.553 21.974,20.2 20.357,21 l 5.277,0 C 24.021,20.198 23,18.552 22.999,16.75 c 0,-2.623 2.127,-4.75 4.75,-4.75" style="fill:#000;fill-opacity:0.098;stroke:none;fill-rule:evenodd"/>
 <path d="M 26.75 11 A 4.75 4.75 0 0 1 31.5 15.75 4.75 4.75 0 0 1 28.857 20 L 30 20 c 0.554 0 1 0.446 1 1 l 0 1.5 7 -2.5 0 13 -7 -2.5 0 1.5 c 0 0.554 -0.446 1 -1 1 l -16 0 c -0.554 0 -1 -0.446 -1 -1 l 0 -11 c 0 -0.554 0.446 -1 1 -1 l 1.135 0 A 4.75 4.75 0 0 1 12.5 15.75 4.75 4.75 0 0 1 17.25 11 4.75 4.75 0 0 1 22 15.75 4.75 4.75 0 0 1 19.357 20 l 5.277 0 A 4.75 4.75 0 0 1 22 15.75 4.75 4.75 0 0 1 26.75 11" style="fill:#14ca78;fill-opacity:1;stroke:none;fill-rule:evenodd"/>
</svg>

<svg xmlns="http://www.w3.org/2000/svg" viewBox="0 0 48 48">
  <defs>
    <linearGradient id="a" x1="1" x2="47" gradientUnits="userSpaceOnUse" gradientTransform="rotate(-90 24 24)">
      <stop stop-color="#3d3d3d"/>
      <stop offset="1" stop-color="#474747"/>
    </linearGradient>
  </defs>
  <path d="M36.31 5c5.859 4.062 9.688 10.831 9.688 18.5 0 12.426-10.07 22.5-22.5 22.5-7.669 0-14.438-3.828-18.5-9.688a23.24 23.24 0 0 0 3.781 4.969 22.923 22.923 0 0 0 15.469 5.969c12.703 0 23-10.298 23-23a22.92 22.92 0 0 0-5.969-15.469A23.216 23.216 0 0 0 36.31 5zm4.969 3.781A22.911 22.911 0 0 1 47.498 24.5c0 12.703-10.297 23-23 23a22.909 22.909 0 0 1-15.719-6.219C12.939 45.425 18.662 48 24.998 48c12.703 0 23-10.298 23-23 0-6.335-2.575-12.06-6.719-16.219z" opacity=".05"/>
  <path d="M41.28 8.781a22.923 22.923 0 0 1 5.969 15.469c0 12.703-10.297 23-23 23A22.92 22.92 0 0 1 8.78 41.281 22.911 22.911 0 0 0 24.499 47.5c12.703 0 23-10.298 23-23A22.909 22.909 0 0 0 41.28 8.781z" opacity=".1"/>
  <path d="M31.25 2.375C39.865 5.529 46 13.792 46 23.505c0 12.426-10.07 22.5-22.5 22.5-9.708 0-17.971-6.135-21.12-14.75a23 23 0 0 0 44.875-7 23 23 0 0 0-16-21.875z" opacity=".2"/>
  <path d="M24 1c12.703 0 23 10.297 23 23S36.703 47 24 47 1 36.703 1 24 11.297 1 24 1z" fill="url(#a)"/>
  <path d="M40.03 7.531A22.922 22.922 0 0 1 45.999 23c0 12.703-10.297 23-23 23A22.92 22.92 0 0 1 7.53 40.031C11.708 44.322 17.54 47 23.999 47c12.703 0 23-10.298 23-23 0-6.462-2.677-12.291-6.969-16.469z" opacity=".1"/>
  <path d="M27.75 12a4.75 4.75 0 0 1 4.75 4.75A4.75 4.75 0 0 1 29.857 21H31c.554 0 1 .446 1 1v1.5l7-2.5v13l-7-2.5V33c0 .554-.446 1-1 1H15c-.554 0-1-.446-1-1V22c0-.554.446-1 1-1h1.135a4.75 4.75 0 0 1-2.635-4.25 4.75 4.75 0 0 1 9.5 0A4.75 4.75 0 0 1 20.357 21h5.277a4.75 4.75 0 0 1-2.635-4.25 4.75 4.75 0 0 1 4.75-4.75" fill-opacity=".098" fill-rule="evenodd"/>
  <path d="M26.75 11a4.75 4.75 0 0 1 4.75 4.75A4.75 4.75 0 0 1 28.857 20H30c.554 0 1 .446 1 1v1.5l7-2.5v13l-7-2.5V32c0 .554-.446 1-1 1H14c-.554 0-1-.446-1-1V21c0-.554.446-1 1-1h1.135a4.75 4.75 0 0 1-2.635-4.25A4.75 4.75 0 0 1 17.25 11 4.75 4.75 0 0 1 22 15.75 4.75 4.75 0 0 1 19.357 20h5.277A4.75 4.75 0 0 1 22 15.75 4.75 4.75 0 0 1 26.75 11" fill="#14ca78" fill-rule="evenodd"/>
</svg>
